X:1
T:St. Austin, 87.87.47
T:St. Austin, 87.87.47
T:Gregorian chant, Bristol Tune Book, 1876
T:Public Domain Courtesy of the Cyber Hymnal™
C:Gregorian chant, Bristol Tune Book, 1876
Z:Public Domain
Z:Courtesy of the Cyber Hymnal™
%%score ( 1 2 ) ( 3 4 )
L:1/8
Q:1/4=110
M:4/4
K:G
V:1 treble 
V:2 treble 
V:3 bass 
V:4 bass 
V:1
 [GB]3 [GB] [GB]2 [GA]2 | [Gc]2 [GB]2 [FA]2 [EG]2 | [EA]3 [EA] [EA]2 E2 | [EG]2 [^DF]2 E4 | %4
 [EB]3 [EB] [EB]2 [^DA]2 | [Ec]2 [FB]2 [FA]2 [EG]2 | [EA]3 [EA] [EA]2 E2 | [EG]2 [^DF]2 E4 | %8
 c3 c c2 B2 | [EA]3 [EA] [EA]2 E2 | [EG]4 [^DF]4 | [B,E]8 |] %12
V:2
 x8 | x8 | x6 E2 | x4 E4 | x8 | x8 | x6 E2 | x4 E4 | c3 c c2 B2 | x6 E2 | x8 | x8 |] %12
V:3
 [G,D]3 [G,D] [G,D]2 [G,C]2 | [G,E]2 [G,D]2 [D,C]2 [E,B,]2 | [C,C]3 [C,B,] [C,A,]2 [C,^A,]2 | %3
 [B,,B,]2 [B,,A,]2 [E,G,]4 | [E,G,]3 [E,G,] [G,B,]2 [F,B,]2 | [E,A,]2 [^D,F,]2 [E,B,]2 [E,B,]2 | %6
 [A,,C]3 [B,,B,] [C,A,]2 [C,^A,]2 | [B,,B,]2 [B,,A,]2 [E,G,]4 | C3 C C2 B,2 | %9
 [C,C]3 [C,B,] [C,A,]2 [C,^A,]2 | [B,,B,]4 [B,,A,]4 | [E,G,]8 |] %12
V:4
 x8 | x8 | x8 | x8 | x8 | x8 | x8 | x8 | C3 C C2 B,2 | x8 | x8 | x8 |] %12

